!!!COM: Palestrina, Giovanni Perluigi da
!!!OPR: Missa De Beata Marie Virginis (I)
!!!OMD: Gloria
!!!OTL: Benedicimus te
**kern	**kern	**kern	**kern	**kern
*Ibass	*Itenor	*Itenor	*Icalto	*Icant
!Bassus	!Tenor 2	!Tenor 1	!Altus	!Cantus
*clefF4	*clefGv2	*clefGv2	*clefG2	*clefG2
*k[]	*k[]	*k[]	*k[]	*k[]
*G:mix	*G:mix	*G:mix	*G:mix	*G:mix
*M4/2	*M4/2	*M4/2	*M4/2	*M4/2
=11	=11	=11	=11	=11
1.G	0r	1.B	1g	1r
.	.	.	1g	1dd
2G	.	2B	.	.
=12	=12	=12	=12	=12
4D	0r	2.A	1f	1dd
4E	.	.	.	.
4F	.	.	.	.
4G	.	4B	.	.
4A	.	4c	1e	1cc
4B	.	4d	.	.
2c	.	4e	.	.
.	.	4f#	.	.
=13	=13	=13	=13	=13
2G	1d	1g	1d	1b
2G	.	.	.	.
1D	1d	2a	1f	1a
.	.	[2f	.	.
=14	=14	=14	=14	=14
1r	1c	4f]	0g	1cc
.	.	4e	.	.
.	.	2e	.	.
1G	1B	2d	.	2dd
.	.	[2d	.	2gg
=15	=15	=15	=15	=15
2D	1A	2d]	2.a	2ff
1F	.	2c	.	1ff
.	.	.	4a	.
.	1c	2A	2a	.
2C	.	2c	2g	2ee
=16	=16	=16	=16	=16
0G	[0d	2.B	0g	2.dd
.	.	4A	.	4cc
.	.	1G	.	1b
=17	=17	=17	=17	=17
[0D	1d_	[0A	[0f#	[0a
.	1d_	.	.	.
=18	=18	=18	=18	=18
0D]	0d]	0A]	0f#]	0a]
*-	*-	*-	*-	*-
!!!CDT: 1525/^1526/-1594/2/2
!!!OCY: Italia
!!!AGN: Mass (Paraphrase)
!!!AST: renaissance, vocal
!!!ASW: Gregorian Mass
!!!PWK: Masses, Book Mantuan I
!!!RNB: Cadence finals: D
!!!YOR: Le Opere Complete, v. 18, p. 83
!!!YOO: Rome, Italy: Fratelli Scalera
!!!END: 1992//
!!!EED: John Miller
!!!YEC: Copyright 2000, John Miller
!!!YEN: United States of America
!!!YEM: Rights to all derivative electronic formats reserved.
!!!YEM: Refer to licensing agreement for further details.
!!!YEM: This file must be accompanied by the licensing agreement.
!!!YEM: A copy of the licensing agreement may be found at http://www.music-cog.ohio-state.edu/HumdrumDatabases/Palestrina/license.txt
!!!EMD: converted to Humdrum by Bret Aarden
